packages/core/src/svgs/tokens/mono/SBD.svg

<svg width="24" height="24" viewBox="0 0 24 24" fill="none" xmlns="http://www.w3.org/2000/svg">
<path d="M4.89083 4.2486C4.02829 4.97364 3.13449 5.87369 2.76573 6.96749C2.3532 8.25506 2.94074 9.56764 3.49702 10.7177C4.05954 11.8865 4.66581 13.0366 5.1971 14.2429C5.61587 15.1929 6.19714 16.3055 6.05964 17.3742C5.94714 18.1305 5.69713 18.8557 5.55961 19.6118C5.44711 20.1182 5.92213 19.6118 6.08464 19.4743C7.06595 18.6369 8.12224 17.6805 8.50977 16.393C8.67302 15.7805 8.62458 15.1307 8.37226 14.5491C8.15349 13.9615 7.89724 13.399 7.64722 12.8116C7.11594 11.6365 6.55967 10.4614 6.00339 9.28632C5.77838 8.86759 5.55961 8.41757 5.35961 7.97379C5.1644 7.49198 5.05238 6.98052 5.02835 6.46122C5.00333 6.0362 5.00333 5.64867 5.05334 5.2299C5.0846 4.91739 5.16584 4.64237 5.1971 4.32986C5.22209 4.16735 5.0846 4.1111 4.88458 4.2486H4.89083ZM17.654 4.2486C16.7914 4.97989 15.8977 5.87369 15.5351 6.96749C15.1164 8.25506 15.7039 9.56764 16.2601 10.7177C16.8228 11.8928 17.429 13.0366 17.9603 14.2429C18.379 15.1929 18.9603 16.3118 18.8228 17.3742C18.7165 18.1305 18.4603 18.8618 18.3227 19.6181C18.2103 20.1182 18.6853 19.6181 18.854 19.4743C19.8291 18.6369 20.8854 17.6867 21.2792 16.3993C21.442 15.784 21.3912 15.1318 21.1354 14.5491C20.9167 13.9615 20.6667 13.4053 20.4104 12.8116C19.8745 11.6309 19.3264 10.4558 18.7665 9.28632C18.5478 8.86759 18.3227 8.41757 18.1291 7.97379C17.9322 7.49217 17.8181 6.98081 17.7914 6.46122C17.7665 6.04244 17.7665 5.64867 17.8228 5.2299C17.8477 4.91739 17.929 4.64237 17.9603 4.32986C17.9915 4.16735 17.8477 4.10484 17.6478 4.2486H17.654Z" fill="white"/>
<path d="M11.1475 2.12374C10.21 2.93628 9.18491 3.91134 8.62241 5.0614C8.23508 5.83138 8.14605 6.71736 8.37239 7.54902C8.65973 8.57071 9.01256 9.57285 9.42876 10.5491C10.2038 12.4243 11.2287 14.1805 11.9788 16.087C12.2476 16.7558 12.5413 17.512 12.6039 18.2746C12.6539 19.1934 12.3539 20.1746 12.1163 21.0373C12.06 21.2872 11.9038 21.6247 11.9288 21.8809C11.9538 22.0748 12.06 21.9935 12.1726 21.906C12.6351 21.5309 13.0726 21.1372 13.4852 20.7059C14.5915 19.6121 15.8603 18.1559 15.7478 16.4557C15.6915 15.7495 15.3728 15.0807 15.104 14.4369C14.804 13.6869 14.4789 12.9555 14.1664 12.2242C13.5727 10.8493 12.9539 9.5116 12.3039 8.16155C12.0914 7.69277 11.8226 7.24275 11.6601 6.76774C11.4291 6.12965 11.3024 5.45851 11.285 4.78013C11.2601 4.2801 11.285 3.74883 11.3413 3.24254C11.3663 2.90504 11.4726 2.59877 11.4726 2.26125C11.5538 1.95499 11.3913 1.92998 11.1475 2.12374Z" fill="white"/>
</svg>

<svg xmlns="http://www.w3.org/2000/svg" width="24" height="24" fill="none" viewBox="0 0 24 24">
    <path fill="#fff" d="M4.89 4.249c-.862.725-1.756 1.625-2.124 2.718-.413 1.288.175 2.6.731 3.75.563 1.17 1.169 2.32 1.7 3.526.419.95 1 2.062.863 3.131-.113.757-.363 1.482-.5 2.238-.113.506.362 0 .525-.138.981-.837 2.037-1.794 2.425-3.081a2.8 2.8 0 0 0-.138-1.844c-.219-.588-.475-1.15-.725-1.737a223 223 0 0 0-1.644-3.526 21 21 0 0 1-.643-1.312 4.6 4.6 0 0 1-.332-1.513 6.7 6.7 0 0 1 .025-1.231c.032-.313.113-.588.144-.9.025-.163-.112-.219-.312-.081zm12.764 0c-.863.73-1.756 1.625-2.119 2.718-.419 1.288.169 2.6.725 3.75.563 1.176 1.169 2.32 1.7 3.526.419.95 1 2.069.863 3.131-.107.757-.363 1.488-.5 2.244-.113.5.362 0 .531-.144.975-.837 2.031-1.787 2.425-3.075a2.8 2.8 0 0 0-.144-1.85c-.218-.588-.468-1.144-.725-1.737a190 190 0 0 0-1.643-3.526 21 21 0 0 1-.638-1.312 4.6 4.6 0 0 1-.338-1.513 6.3 6.3 0 0 1 .032-1.231c.025-.313.106-.588.137-.9.031-.163-.112-.225-.312-.081zm-6.506-2.125c-.938.812-1.963 1.787-2.526 2.937a3.5 3.5 0 0 0-.25 2.488q.432 1.535 1.057 3c.775 1.875 1.8 3.632 2.55 5.538.269.669.562 1.425.625 2.188.05.918-.25 1.9-.488 2.762-.056.25-.212.588-.187.844.025.194.131.113.244.025.462-.375.9-.769 1.312-1.2 1.107-1.094 2.375-2.55 2.263-4.25-.056-.707-.375-1.375-.644-2.02-.3-.75-.625-1.48-.938-2.212a108 108 0 0 0-1.862-4.062c-.213-.47-.481-.92-.644-1.394a6.3 6.3 0 0 1-.375-1.988c-.025-.5 0-1.031.056-1.537.025-.338.132-.644.132-.982.08-.306-.082-.331-.325-.137"/>
</svg>
